X:1
T:Title
%%score ( 1 2 ) ( 3 4 )
L:1/8
Q:1/4=96
M:4/4
K:D
V:1 treble nm="Midi_20"
V:2 treble 
V:3 bass nm="Midi_20"
V:4 bass 
V:1
"^Leominster (D.S.M.)""^George William Martin (1828-1881)\narranged by Sir Arthur Sullivan\n(1842-1900)""^Make me a captive, Lord" F2 | %1
 F2 F2 F2 F2 | G6 G2 | E2 E2 E2 F2 | E6 || E2 | F2 F2 A2 A2 | d2 d2 d2 D2 | D2 F2 F2 E2 | D6 || %10
 D2 | G3 G G2 D2 | F6 F2 | B3 B B2 F2 | A6 || A2 | d3 d d2 c2 | c2 B2 A2 G2 | F3 D F2 E2 | D6 |] %20
V:2
 D2 | D2 D2 D2 D2 | D6 D2 | D2 D2 D2 D2 | C6 || C2 | D2 D2 E2 E2 | D2 =C2 B,2 B,2 | A,2 D2 C2 C2 | %9
 D6 || D2 | D3 D D2 D2 | D6 D2 | F3 F F2 F2 | F6 || G2 | F3 F E2 E2 | E2 D2 ^D2 E2 | =D3 D C2 C2 | %19
 D6 |] %20
V:3
 A,2 | A,2 A,2 A,2 A,2 | B,6 B,2 | B,2 B,2 B,2 B,2 | E,6 || A,2 | A,2 A,2 A,2 A,2 | %7
 F,2 F,2 G,2 E,2 | F,2 A,2 A,2 G,2 | F,6 || F,2 | B,3 B, B,2 G,2 | A,6 A,2 | D3 D D2 B,2 | C6 || %15
"^1. Make me a captive, Lord, \n    And then I shall be fre;\n    Force me to render up my sword,\n    And I shall conqueror be.\n    I sink in life's alarms\n    When by myself I stand;\n    Imprison me within Thine arms,\n    And strong shall be my hand.\n\n2. My heart is weak and poor\n    Until it master find;\n    It has no spring of action sure -\n    It varies with the wind.\n    It cannot freely move,\n    Till though hast wrought its chain;\n    Enslave it with Thy matchless love,\n    And deathless it shall reign." C2 | %16
 D2 A,2 ^A,2 A,2 | %17
 ^A,2 B,2"^3. My power is faint and low\n    Till I have learned to serve;\n    It wants the needed fire to glow,\n    It wants the breeze to nerve;\n    It cannot drive the world,     \n    Until itself be driven;\n    Its flag can only be unfurled\n    When Thou shalt breathe from heaven.\n\n4. My will is not my own\n    Till Thou hast made it Thine;\n    If it would reach a monarch's throne\n    It must its crown resign;\n    It only stands unbent,\n    Amid the clashing strife,\n    When on Thy bosom it has leant\n    And found in Thee its life." B,2 B,2 | %18
 A,3 F, A,2 G,2 | F,6 |] %20
V:4
 D,2 | D,2 D,2 D,2 D,2 | G,,6 G,,2 | G,,2 G,,2 ^G,,2 G,,2 | A,,6 || A,,2 | D,2 D,2 C,2 C,2 | %7
 B,,2 A,,2 G,,2 ^G,,2 | A,,2 A,,2 A,,2 A,,2 | D,6 || D,2 | G,,3 G,, G,,2 B,,2 | D,6 D,2 | %13
 B,,3 B,, B,,2 D,2 | F,6 || E,2 | D,3 D, F,2 F,,2 | G,,2 G,,2 B,,2 E,2 | A,,3 A,, A,,2 A,,2 | %19
 D,6 |] %20

